X:1
T:Summertime
C:George Gershwin
C:DuBose Heyward
C:1934
Z:guitar intro: dm /A/ dm /A/
L:1/8
M:4/4
I:linebreak $
K:F
V:1 treble nm="Voice" snm="Voice"
V:1
 AF | A4- A4 | A z G>F G>A F2 | D2 A,4 | A,4"A" z A2 F |$ G G3- G4 | z2 FD FD F2 | E4- E4- | %8
 E4 z AAF | A4- A4- |$ A z G>F G>A F2 | D2 A,6- | A,4"A" z2 A,2 | C2 A,C D F3 | A G3- G2 F2 |$ %15
 F D3- D4- | D6 z2 |] %17
